X: 14
T: le Berger Fidelle
%R: jig
Z: 2015 John Chambers <jc:trillian.mit.edu>
S: http://books.google.com/books?id=ipV0y26Vq8EC
B: Giovanni Andrea Gallini  "A New Collection of Forty-Four Cotillions" c.1755 #14
N: This version is for ABC software that doesn't understand voice overlay.
M: 6/8
L: 1/8
K: D
% - - - - - - - - - - - - - - - - - - - - - - - - - - - - -
% Voice 1 staff breaks arranged to fit a wider page:
V: 1
A2d |\
A2d AGF | E3 F2D | G2F E2D | E3 a2d' |\
a2d' agf | e3 f2d | {ef}g2f ede | d3 :|
|: A2d |\
{d}c2d e2f | {a}g2f e2d | c2d e2f | {f}e3 A2d |\
{d}c2d e2f | g2f e2d | {d}c2d efe | d3 :|
|: DFA |\
B2A {Bc}d2c | B2A d2c | B2A AGF | E3 dfa |\
b2a {bc'}d'2c' | b2a d'2c' | b2a gfe | d3 :|
|: F2G |\
A2B c2d | B2A d2d | c2B A2G | F3 F2G |\
A2B c2d | B2A d2B | A2G {G}F2E | D3 :|
% - - - - - - - - - - - - - - - - - - - - - - - - - - - - -
% Voice 2 preserves the original staff layout:
V: 2 clef=bass middle=d
d2z |\
d2z d2z | a2z d2f | c2d A2d | a3 d2z | d2z d2z |
a3 d2f | c2d a2A | d3 :||: [a2A3]a | [g2A3]f [e2A3]d | [c2A3]d [e2A3]f | [g2A3]f [e2A3]d |
[c2A2]z [a2A3]a | [g2A3]f [e2A2]d | [c2A3]d [e2A3]f | [g2A3]f [e2A2][gA] | [f3d3] :||: d3 |
d3 d3 | d3 d3 | d3 c2d | a3 d3 | d3 d3 |
d3 d3 | d3 A3 | d3 :||: d3 | d3-d3 | d3-d3 |
a3c3 | d3-d3 | d3-d3 | d3-d2g | a3 A3 | d3 :|
% - - - - - - - - - - Dance description - - - - - - - - - -
%%sep 1 1 400
%%center Le Berger Fidelle
%%begintext align
%%   The first Gentleman turns his Partner to
%% face the outside, the second Couple follow the
%% first, the third Couple follow the second, and
%% the fourth Couple follow the third, then all
%% Eight Balanc\'e and Rigaudon - - 1/2
%%endtext
%%begintext align
%%   The first and second Couple hands cross,
%% and back again, while the third and fourth
%% Couple Chass\'e cross and back again - 1/2
%%endtext
%%begintext align
%%   The first and second Couple Contretems and
%% go to the Bottom, while the third and fourth
%% Couple advance to the top and Rigaudon, then
%% all Eight Allemance - - - 1/3
%%endtext
%%begintext align
%%   The first and second Couple Contretems and
%% go to the Bottom, while the first and second
%% Couple advance to the Top and Rigaudon - 1/3
%% The third and fourth Couple Contretems and
%% go to the Bottom, while the first and second
%% Couple advance to the Top and Rigaudon - 1/3
%%endtext
%%begintext align
%%   Each Lady tuns under her Partner's Arm
%% and Rigaudon, then each Gentleman turns
%% under his Partner's Arm and Rigaudon - - 1/4
%%endtext
%%begintext align
%%   All Eight Allemande to the Right, then
%% back to their places - - - 1/4
%%endtext
%%sep 1 1 400
